X:1
T:Augusta, CM
T:Augusta, CM
T:Attributed to Martin C. H. Davis, 1835
T:Public Domain Courtesy of the Cyber Hymnal™
C:Attributed to Martin C. H. Davis, 1835
Z:Public Domain
Z:Courtesy of the Cyber Hymnal™
%%score ( 1 2 ) ( 3 4 )
L:1/8
Q:1/4=115
M:4/4
K:F
V:1 treble 
V:2 treble 
V:3 bass 
V:4 bass 
V:1
 [CF]4 | (FE) [FA]2 [Ac]4 | [Fd]4 [Ec]2 ([FA]G) x | !fermata!F4 ([Ac]3 [Bd]) | %4
 [cf]2 [Bf]2 [Ae]2 (dc) | !fermata![Gd]4 d4 | [Ac]2 (de) [Af]4 | [Ac]4 A2 d2 | %8
 !fermata![Ec]4 [Ad]3 [Gc] | [FA]3 F [DG]2 [CG]2 | !fermata![CF]4 |] %11
V:2
 x4 | D2 x6 | x7 G2 | F4 x4 | x6 F2 | x4 (G3 F) | x2 A2 x4 | x4 (FE) (DF) | x8 | x3 F x4 | x4 |] %11
V:3
 [F,C]4 | [D,D]2 [D,D]2 [C,C]4 | [D,A,]4 [C,G,]2 ([D,A,][E,B,]) x | !fermata![F,C]4 (C3 B,) | %4
 [F,A,]2 [F,B,]2 [A,C]2 (FE) | !fermata![G,D]4 D4 | [CF]2 ([A,D] C) [F,C]4 | [F,A,]4 C2 A,2 | %8
 !fermata![C,G,]4 [F,A,]3 [G,C] | [A,D]3 [F,E] [D,D]2 [C,C]2 | !fermata![F,C]4 |] %11
V:4
 x4 | x8 | x9 | x4 F,4 | x6 F,2 | x4 (G,3 A,) | x3 C x4 | x4 (F,G,) (A,F,) | x8 | x8 | x4 |] %11

